picto/ski-lift-right-framed.svg

<svg class="color-immutable" width="30" height="30" viewBox="0 0 30 30" fill="none" xmlns="http://www.w3.org/2000/svg"><path d="M30 0H0V30H30V0Z" fill="#2D327D"/><path d="M25.5 3C26.325 3 27 3.675 27 4.5V25.5C27 26.325 26.325 27 25.5 27H4.5C3.675 27 3 26.325 3 25.5V4.5C3 3.675 3.675 3 4.5 3H25.5ZM25.5 2.625H4.5C3.46613 2.625 2.625 3.46613 2.625 4.5V25.5C2.625 26.5339 3.46613 27.375 4.5 27.375H25.5C26.5339 27.375 27.375 26.5339 27.375 25.5V4.5C27.375 3.46613 26.5339 2.625 25.5 2.625Z" fill="white"/><path d="M13.7653 12.5913L20.3555 6H21.3635L14.2688 13.0945L13.7653 12.5913Z" fill="white"/><path d="M10.8741 10.2309L14.1517 13.5092C14.2547 13.6105 14.3113 13.7497 14.3113 13.8937C14.3113 14.1935 14.0679 14.4368 13.7669 14.4368C13.6239 14.4368 13.4856 14.3803 13.3832 14.278L10.874 11.7693V10.2309H10.8741Z" fill="white"/><path d="M11.7381 15.6243L11.2345 15.1211L12.4655 13.8908L12.969 14.3941L11.7381 15.6243Z" fill="white"/><path d="M6.10867 11.5901L8.22585 9.4722C8.47672 9.22253 8.81482 9.08235 9.16792 9.08235C9.90277 9.08235 10.4991 9.67935 10.4991 10.4138V14.9158L12.1517 16.5685C12.2224 16.6392 12.2614 16.7348 12.2614 16.834V21.0558C12.2614 21.4394 11.9512 21.7494 11.5684 21.7494C11.1848 21.7494 10.8735 21.4394 10.8735 21.0558V17.6241L7.95187 14.8146C7.87838 14.7432 7.8366 14.6465 7.8366 14.5445V11.3468L7.0869 12.097V14.8685C7.0869 15.1685 6.84353 15.4117 6.54248 15.4117C6.24248 15.4117 6 15.1685 6 14.8685V11.8556C6 11.7554 6.039 11.6608 6.10867 11.5901Z" fill="white"/><path d="M19.2716 20.2983C19.4833 20.1562 19.6321 19.9362 19.6858 19.6873H20.5488C20.5033 20.0449 20.3361 20.3753 20.0741 20.6233C19.6757 20.9807 19.1953 21.2332 18.6742 21.3595L6 24V23.3103L18.1697 20.7746C18.5655 20.6911 18.9399 20.5294 19.2716 20.2983Z" fill="white"/><path d="M8.95667 17.4301C8.95667 17.1302 9.20004 16.8861 9.50109 16.8861C9.80027 16.8861 10.0437 17.1302 10.0437 17.4301C10.0437 17.7301 9.80027 17.9742 9.50109 17.9742C9.20004 17.9743 8.95667 17.7301 8.95667 17.4301Z" fill="white"/><path d="M9.15752 8.83823C8.51627 8.83823 7.99585 8.31735 7.99585 7.67573C7.99585 7.03313 8.5162 6.51323 9.15752 6.51323C9.79952 6.51323 10.3208 7.03313 10.3208 7.67573C10.3208 8.31735 9.79945 8.83823 9.15752 8.83823Z" fill="white"/></svg>

<svg class="color-immutable" width="30" height="30" viewBox="0 0 30 30" fill="none" xmlns="http://www.w3.org/2000/svg"><g clip-path="url(#a)"><path d="M30 0H0v30h30V0Z" fill="#2D327D"/><path d="M25.5 3c.825 0 1.5.675 1.5 1.5v21c0 .825-.675 1.5-1.5 1.5h-21c-.825 0-1.5-.675-1.5-1.5v-21C3 3.675 3.675 3 4.5 3h21Zm0-.375h-21A1.877 1.877 0 0 0 2.625 4.5v21c0 1.034.841 1.875 1.875 1.875h21a1.877 1.877 0 0 0 1.875-1.875v-21A1.877 1.877 0 0 0 25.5 2.625Z" fill="#fff"/><path d="M13.765 12.591 20.355 6h1.008l-7.094 7.095-.504-.504ZM10.874 10.23l3.278 3.28a.544.544 0 0 1-.768.769l-2.51-2.51v-1.538ZM11.738 15.624l-.503-.503 1.23-1.23.504.503-1.23 1.23Z" fill="#fff"/><path d="m6.109 11.59 2.117-2.118a1.332 1.332 0 0 1 2.273.942v4.502l1.653 1.652c.07.071.11.167.11.266v4.222a.693.693 0 1 1-1.389 0v-3.432l-2.921-2.81a.376.376 0 0 1-.115-.27v-3.197l-.75.75v2.771a.544.544 0 0 1-1.087 0v-3.012c0-.1.039-.195.109-.266Z" fill="#fff"/><path d="M19.272 20.298a.988.988 0 0 0 .414-.61h.863a1.558 1.558 0 0 1-.475.935c-.398.358-.879.61-1.4.736L6 24v-.69l12.17-2.535c.395-.084.77-.246 1.102-.477ZM8.957 17.43a.544.544 0 1 1 1.088 0 .544.544 0 0 1-1.088 0ZM9.158 8.838a1.163 1.163 0 1 1 .001-2.325 1.163 1.163 0 0 1-.001 2.325Z" fill="#fff"/></g><defs><clipPath id="a"><path fill="#fff" d="M0 0h30v30H0z"/></clipPath></defs></svg>
